X: 11293
Q: "Moderate."
M: 6/8
L: 1/8
K: F
c |\
d2d d>ef | c2c c2B | A2A A>=Bc | G2G Gzc |\
{c}d2d d>ef | {d}c2c c2B | A>Bc f2A | {A}G>FG F2A |
d2d d>ef | {f}c2c Hc2B | A>Bc Hf2A | G>FG F2 |]


